jsapp/svg-icons/text.svg

<svg height="40" viewBox="0 0 40 40" width="40" xmlns="http://www.w3.org/2000/svg"><path d="m25.2393466 12h-10.4900568c-.413608 0-.7492898.3584-.7492898.8v2.4h1.4985795v-1.6h3.7464489v12.8h-2.2478693v1.6h5.9943182v-1.6h-2.2478693v-12.8h3.7464488v1.6h1.4985796v-2.4c0-.4416-.3356819-.8-.7492898-.8" fill-rule="evenodd"/></svg>

<?xml version="1.0" encoding="UTF-8"?>
<svg width="40px" height="40px" viewBox="0 0 40 40" version="1.1" xmlns="http://www.w3.org/2000/svg" xmlns:xlink="http://www.w3.org/1999/xlink">
    <!-- Generator: Sketch 50.2 (55047) - http://www.bohemiancoding.com/sketch -->
    <title>Icons/text</title>
    <desc>Created with Sketch.</desc>
    <defs>
        <path d="M25.2393466,12 L14.7492898,12 C14.3356818,12 14,12.3584 14,12.8 L14,15.2 L15.4985795,15.2 L15.4985795,13.6 L19.2450284,13.6 L19.2450284,26.4 L16.9971591,26.4 L16.9971591,28 L22.9914773,28 L22.9914773,26.4 L20.743608,26.4 L20.743608,13.6 L24.4900568,13.6 L24.4900568,15.2 L25.9886364,15.2 L25.9886364,12.8 C25.9886364,12.3584 25.6529545,12 25.2393466,12" id="path-1"></path>
    </defs>
    <g id="Icons/text" stroke="none" stroke-width="1" fill="none" fill-rule="evenodd">
        <mask id="mask-2" fill="white">
            <use xlink:href="#path-1"></use>
        </mask>
        <use id="Mask" fill="#000000" xlink:href="#path-1"></use>
    </g>
</svg>
